!!!COM: Music21
!!!OTL: hornpipe_Dickies
!!!OMV: hornpipe_Dickies
**kern
*clefG2
*k[f#c#]
*D:
*M4/4
=1
4dd
8ff#L
8ddJ
8aL
8bJ
8bL
8ddJ
=
8bL
8aJ
8f#L
8bJ
8aL
8gJ
8f#L
8gJ
=
8aL
8bJ
8ddL
8eeJ
8ff#L
8aaJ
8aaL
8ff#J
=
8ggL
8ggJ
8ff#L
8ggJ
8eeL
8ggJ
8ff#L
8eeJ
=
4dd
8ff#L
8ddJ
8aL
8bJ
8bL
8ddJ
!!linebreak:original
=
8bL
8aJ
8f#L
8bJ
8aL
8gJ
8f#L
8gJ
=
8aL
8bJ
8ddL
8eeJ
8ff#L
8aaJ
8aaL
8ff#J
=
8ggL
8eeJ
8cc#L
8eeJ
8ddL
8aJ
8bL
8aJ
=||
8aL
8bJ
8ddL
8eeJ
8ff#L
8ddJ
8bL
8aJ
=
12bL
12cc#
12ddJ
8ff#L
8ddJ
8ddL
8eeJ
8ff#L
8ddJ
!!linebreak:original
=
8eeL
8aaJ
4aa
8ddL
8eeJ
8eeL
8ff#J
=
8ff#L
8ggJ
8ggL
8ff#J
8eeL
8ggJ
8ff#L
8eeJ
=
4dd
8ff#L
8ddJ
8aL
8bJ
4b
=
8bL
8aJ
8f#L
8bJ
8aL
8gJ
8f#L
8gJ
=
8aL
8bJ
8ddL
8eeJ
8ff#L
8aaJ
8aaL
8ff#J
!!linebreak:original
=
8ggL
8eeJ
8cc#L
8eeJ
8ddL
8aJ
8bL
8aJ
=
8aL
8bJ
8ddL
8eeJ
8ff#L
8ddJ
8bL
8aJ
=
12bL
12cc#
12ddJ
8ff#L
8ddJ
8ddL
8eeJ
8ff#L
8ddJ
=
8eeL
8aaJ
4aa
8ddL
8eeJ
8eeL
8ff#J
=
8ff#L
8ggJ
4gg
8ggL
8ff#J
8eeL
8ff#J
!!linebreak:original
=
8ff#L
8ddJ
8eeL
8ddJ
8aL
8bJ
8ddL
8bJ
=
8bL
8aJ
8f#L
8bJ
8aL
8gJ
8f#L
8gJ
=
8aL
8bJ
8ddL
8eeJ
8ff#L
8aaJ
8aaL
8ff#J
=
8ggL
8eeJ
8cc#L
8eeJ
4dd
4dd
=||
8dL
8f#J
8aL
8ddJ
8eeL
8ff#J
8ff#L
8eeJ
!!linebreak:original
=
4.dd
8ee
8ff#L
8ddJ
8aL
8f#J
=
4g
8f#L
8gJ
8dL
8eJ
8eL
8f#J
=
8gL
8eJ
4e
8eL
8f#J
8gL
8eJ
=
8f#L
8dJ
8aL
8gJ
8f#L
8aJ
8aL
8ddJ
=
8a
4.b
8bL
8cc#J
8ddL
8eeJ
!!linebreak:original
=
8ff#L
8aaJ
8aaL
8ff#J
12ggL
12ff#
12eeJ
8cc#L
8ddJ
=
8eeL
8ddJ
8ddL
8cc#J
8ddL
8bJ
8aL
8f#J
=
8dL
8f#J
8aL
8ddJ
8eeL
8ff#J
8ff#L
8eeJ
=
4.dd
8ee
8ff#L
8ddJ
8aL
8f#J
=
4g
8f#L
8gJ
8dL
8eJ
8eL
8f#J
!!linebreak:original
=
4.g
8f#
8eL
8f#J
8gL
8eJ
=
4f#
8aL
8gJ
4f#
8aL
8ddJ
=
8a
4.b
8bL
8cc#J
8ddL
8eeJ
=
8ff#L
8aaJ
8aaL
8ff#J
12ggL
12ff#
12eeJ
8cc#L
8ddJ
=
8eeL
8ddJ
8ddL
8cc#J
8ddL
8ff#J
8aaL
8ff#J
!!linebreak:original
=||
4ff#
8aaL
8ff#J
8ddL
8ff#J
8aaL
8ff#J
=
4gg
8eeL
8ddJ
8cc#L
8eeJ
8aaL
8ggJ
=
8ff#L
8aaJ
8aaL
8ff#J
12ggL
12ff#
12eeJ
8eeL
8ddJ
=
8bL
8aJ
8aL
8gJ
4.a
8g
=
8f#L
8dJ
8aL
8gJ
8f#L
8aJ
8aL
8ddJ
!!linebreak:original
=
8a
4.b
8bL
8cc#J
8ddL
8eeJ
=
8ff#L
8aaJ
8aaL
8ff#J
8ggL
8eeJ
8cc#L
8ddJ
=
8eeL
8ddJ
8ddL
8cc#J
4dd
4dd
=||
*-
